!!!OTL: "Die Schlaue" GUTEN ABEND, VRENELI
!!!ARE: Europa, Mitteleuropa, Schweiz
!!!SCT: Z1216
!!!YEM: Copyright 1995, estate of Helmut Schaffrath.
**kern
*ICvox
*Ivox
*M2/4
*k[f#c#g#]
*A:
{8.a
16cc#
8ee
8cc#
=1
8cc#
8b
4b}
=2
{8.b
16dd
8ff#
8dd
=3
8dd
8cc#
4cc#}
=4
{8.a
16cc#
8ee
8cc#
=5
8cc#
8b
4b}
=6
{8dd
8b
8a
8g#
=7
4a
4r}
==
!!!AGN: Liebes - Lied
!!!ONB: ESAC (Essen Associative Code) Database: ZUCCAL
!!!AMT: simple duple
!!!AIN: vox
!!!EED: Helmut Schaffrath
!!!EEV: 1.0
*-
